X: 40380
T: Tom Hackett's Dream
R: jig
M: 6/8
K: Gmajor
|:BAB GBd|e2 c cde|dBG dBG|FGA AGA|
BAB GBd|ecc Gce|dBG FGA|AGF G2 A:|
|:B2 d gdB|c2 e gec|B2 d gdB|Agf edc|
B2 d gdB|c2 e gec|BAB DFA|AGF G3:|

